modules/zondicons/icons/border-inner.svg

<svg width="20" height="20" viewBox="0 0 20 20" xmlns="http://www.w3.org/2000/svg"><path d="M9 9H1v2h8v8h2v-8h8V9h-8V1H9v8zM1 1h2v2H1V1zm0 4h2v2H1V5zm0 8h2v2H1v-2zm0 4h2v2H1v-2zM5 1h2v2H5V1zm0 16h2v2H5v-2zm8-16h2v2h-2V1zm0 16h2v2h-2v-2zm4-16h2v2h-2V1zm0 4h2v2h-2V5zm0 8h2v2h-2v-2zm0 4h2v2h-2v-2z" fill="#000" fill-rule="evenodd"/></svg>

<?xml version="1.0" encoding="UTF-8" standalone="no"?>
<svg width="20px" height="20px" viewBox="0 0 20 20" version="1.1" xmlns="http://www.w3.org/2000/svg" xmlns:xlink="http://www.w3.org/1999/xlink">
    <!-- Generator: Sketch 3.7.2 (28276) - http://www.bohemiancoding.com/sketch -->
    <title>border-inner</title>
    <desc>Created with Sketch.</desc>
    <defs></defs>
    <g id="Page-1" stroke="none" stroke-width="1" fill="none" fill-rule="evenodd">
        <g id="border-inner" fill="#000000">
            <path d="M9,9 L1,9 L1,11 L9,11 L9,19 L11,19 L11,11 L19,11 L19,9 L11,9 L11,1 L9,1 L9,9 Z M1,1 L3,1 L3,3 L1,3 L1,1 Z M1,5 L3,5 L3,7 L1,7 L1,5 Z M1,13 L3,13 L3,15 L1,15 L1,13 Z M1,17 L3,17 L3,19 L1,19 L1,17 Z M5,1 L7,1 L7,3 L5,3 L5,1 Z M5,17 L7,17 L7,19 L5,19 L5,17 Z M13,1 L15,1 L15,3 L13,3 L13,1 Z M13,17 L15,17 L15,19 L13,19 L13,17 Z M17,1 L19,1 L19,3 L17,3 L17,1 Z M17,5 L19,5 L19,7 L17,7 L17,5 Z M17,13 L19,13 L19,15 L17,15 L17,13 Z M17,17 L19,17 L19,19 L17,19 L17,17 Z" id="Combined-Shape"></path>
        </g>
    </g>
</svg>
